X:1
T:Stolen Moments
T:Stolen Moments
T:OLIVER NELSON
C:Oliver Nelson
Z:All Rights Reserved
L:1/8
M:4/4
K:Bb
V:1 treble 
%%MIDI program 0
V:1
"Cm7""^Moderately slow" z G Bd z c2 B |"Cm6" cA- AF/C/ E G3 |"Cm7" z G Bd z c2 B |"Cm6" c A3 G4 | %4
"Fm7" z _A ce z d2 c |"Fm6" d B3 F _A3 |"Cm7" z E GB z A2 G |"Cm6" A F3 E2 GB | %8
"Dm" ce"D#m"c"D#m"c- ce"Em"c"Em"c- | ce"Fm"c"Fm"c- ce"F#m"c"F#m"c- | ce"Fm"c"Fm"c- ce"Em"c"Em"c- | %11
 ce"Ebm"c"Ebm"c- cE"Dm7"C"Dm7"C- | CDC"D#dim7"C-"D#dim7" CDCC- |"C/E" CD/E/ C"Fm"C-"Fm" CGAG | %14
"Cm" B2 AG- G3 G- |1"G+7" G8 :|2"G+7" G4 z G AG ||"Cm7" B2 AG G3 G- |"G+7" G4 z C EG | %19
"F7sus4" F8- |"Cm9" !fermata!F8 |] %21

